content/assets/logo.svg

<svg xmlns="http://www.w3.org/2000/svg" viewBox="0 0 401 401"><g data-name="Layer 2"><g data-name="Layer 1"><rect width="401" height="401" rx="43.81" fill="#9561aa"/><path d="M277.78 96.5h-82a21.27 21.27 0 00-21.27 21.27v112.74a21.27 21.27 0 01-21.27 21.27h-8.74a21.28 21.28 0 01-21.27-21.27V117.77A21.27 21.27 0 00102 96.5H91.77a21.27 21.27 0 00-21.27 21.27v165.46a21.27 21.27 0 0021.27 21.27h217.46a21.27 21.27 0 0021.27-21.27v-10.18a21.27 21.27 0 00-21.27-21.27h-61.46a21.27 21.27 0 01-21.27-21.27v-61.46a21.27 21.27 0 0121.27-21.27h61.46a21.27 21.27 0 0021.27-21.27v-8.74a21.27 21.27 0 00-21.27-21.27z" fill="#fff"/></g></g></svg>

<svg xmlns="http://www.w3.org/2000/svg" viewBox="0 0 401 401"><defs><style>.cls-1{fill:#9561aa;}.cls-2{fill:#fff;}</style></defs><title>Asset 10</title><g id="Layer_2" data-name="Layer 2"><g id="Layer_1-2" data-name="Layer 1"><rect class="cls-1" width="401" height="401" rx="43.81"/><path class="cls-2" d="M277.78,96.5h-82a21.27,21.27,0,0,0-21.27,21.27V230.51a21.27,21.27,0,0,1-21.27,21.27h-8.74a21.28,21.28,0,0,1-21.27-21.27V117.77A21.27,21.27,0,0,0,102,96.5H91.77A21.27,21.27,0,0,0,70.5,117.77V283.23A21.27,21.27,0,0,0,91.77,304.5H309.23a21.27,21.27,0,0,0,21.27-21.27V273.05a21.27,21.27,0,0,0-21.27-21.27H247.77a21.27,21.27,0,0,1-21.27-21.27V169.05a21.27,21.27,0,0,1,21.27-21.27h61.46a21.27,21.27,0,0,0,21.27-21.27v-8.74A21.27,21.27,0,0,0,309.23,96.5Z"/></g></g></svg>
